X: 10307
T: Dolly Mac Donough
R: hornpipe
M: 4/4
K: Gmajor
EF|GFGA BGFG|E4 D2 Bc|d2 g2 e2 dc|B2 A2 G2 EF|
GFEF G2 A2|B2 ef gfec|B2 GB A3F|G4 G2||
Bd|e2 d2 Bdef|g4 f2 g2|e2 d2 egfd|e3d B2 Bd|
e2 d2 Bdef|g3e fe (3dBA|B2 e2 f3d|e6 ef|
gfed Bdef|g3f agfg|e2 BA BAGF|E4 D2 EF|
GFEF G2 A2|B2 ef gfed|B2 GB A3F|G4 G2||

